services/check-ins.svg

<svg xmlns="http://www.w3.org/2000/svg" viewBox="0 0 16 16"><defs><style>.cls-1,.cls-2{fill:#231f20}.cls-2{fill-rule:evenodd}</style></defs><title>check-ins</title><g id="Layer_1" data-name="Layer 1"><path class="cls-1" d="M14 0H2a2 2 0 0 0-2 2v12a2 2 0 0 0 2 2h12a2 2 0 0 0 2-2V2a2 2 0 0 0-2-2zm0 14H2V2h3a1 1 0 0 0 1 1h4a1 1 0 0 0 1-1h3z"/><path class="cls-2" d="M12.008 5.682a1.038 1.038 0 0 0-1.466 0L6.875 9.341 5.408 7.877a1.036 1.036 0 0 0-1.467 1.464l2.2 2.2a1.038 1.038 0 0 0 1.467 0l4.4-4.391a1.033 1.033 0 0 0 0-1.468z"/></g></svg>

<svg xmlns="http://www.w3.org/2000/svg" viewBox="0 0 16 16"><defs><style>.cls-1,.cls-2{fill:#231f20;}.cls-2{fill-rule:evenodd;}</style></defs><title>check-ins</title><g id="Layer_1" data-name="Layer 1"><path class="cls-1" d="M14,0H2A2,2,0,0,0,0,2V14a2,2,0,0,0,2,2H14a2,2,0,0,0,2-2V2A2,2,0,0,0,14,0Zm0,14H2V2H5A1,1,0,0,0,6,3h4a1,1,0,0,0,1-1h3Z"/><path class="cls-2" d="M12.008,5.682a1.038,1.038,0,0,0-1.466,0L6.875,9.341,5.408,7.877A1.036,1.036,0,0,0,3.941,9.341l2.2,2.2a1.038,1.038,0,0,0,1.467,0l4.4-4.391A1.033,1.033,0,0,0,12.008,5.682Z"/></g></svg>
